img/svgicons/dumbbell.svg

<svg width="45" height="45" viewBox="0 0 45 45" fill="none" xmlns="http://www.w3.org/2000/svg">
<path d="M44.2615 19.201H41.7253V15.7806C41.7253 15.3822 41.3949 15.0518 40.9965 15.0518H36.8862V11.6217C36.8862 11.2233 36.5558 10.8929 36.1574 10.8929H31.3183C30.9199 10.8929 30.5895 11.2233 30.5895 11.6217V19.201H14.2745V11.6217C14.2745 11.2233 13.9441 10.8929 13.5457 10.8929H8.70654C8.30814 10.8929 7.97776 11.2233 7.97776 11.6217V15.0421H3.86742C3.46901 15.0421 3.13863 15.3725 3.13863 15.7709V19.1913H0.728784C0.330382 19.1913 0 19.5217 0 19.9201V24.9536C0 25.352 0.330382 25.6823 0.728784 25.6823H3.14835V29.2291C3.14835 29.6275 3.47873 29.9579 3.87713 29.9579H7.98748V33.3783C7.98748 33.7767 8.31786 34.1071 8.71626 34.1071H13.5554C13.9538 34.1071 14.2842 33.7767 14.2842 33.3783V25.6726H30.5992V33.3783C30.5992 33.7767 30.9296 34.1071 31.328 34.1071H36.1671C36.5655 34.1071 36.8959 33.7767 36.8959 33.3783V29.9579H41.0063C41.4047 29.9579 41.735 29.6275 41.735 29.2291V25.6823H44.2712C44.6696 25.6823 45 25.352 45 24.9536V19.9201C44.9903 19.5217 44.6599 19.201 44.2615 19.201ZM3.14835 24.2345H1.45757V24.2248V20.6586H3.14835V24.2345V24.2345ZM7.98748 28.51H4.60592V16.5094H7.98748V28.51ZM12.8169 32.6592H9.43533V12.3505H12.8169V32.6592ZM30.5895 24.2345H14.2745V24.2248V20.6586H30.5895V24.2345ZM35.4286 32.6592H32.0471V12.3505H35.4286V32.6592ZM40.2678 28.51H36.8862V16.5094H40.2678V28.51ZM43.5327 24.2248H41.7253V20.6586H43.5327V24.2248Z" fill="#C4C4C4"/>
</svg>

<svg width="45" height="45" fill="none" xmlns="http://www.w3.org/2000/svg"><path d="M44.261 19.201h-2.536v-3.42a.734.734 0 0 0-.729-.73h-4.11v-3.43a.734.734 0 0 0-.729-.728h-4.839a.734.734 0 0 0-.729.729V19.2H14.276v-7.58a.734.734 0 0 0-.73-.728H8.708a.734.734 0 0 0-.73.729v3.42h-4.11a.734.734 0 0 0-.728.729v3.42H.729a.734.734 0 0 0-.729.73v5.033c0 .398.33.728.729.728h2.42v3.547c0 .399.33.729.728.729h4.11v3.42c0 .399.33.73.73.73h4.838c.399 0 .73-.331.73-.73v-7.705h16.314v7.705c0 .399.33.73.729.73h4.84c.398 0 .728-.331.728-.73v-3.42h4.11c.399 0 .729-.33.729-.729v-3.547h2.536c.399 0 .729-.33.729-.728V19.92a.74.74 0 0 0-.739-.719ZM3.148 24.235h-1.69V20.659h1.69v3.576Zm4.84 4.275H4.605v-12h3.381v12Zm4.829 4.15H9.435V12.35h3.382v20.31Zm17.773-8.425H14.274V20.659H30.59v3.576Zm4.839 8.424h-3.382V12.351h3.382v20.308Zm4.839-4.149h-3.382v-12h3.382v12Zm3.265-4.285h-1.808v-3.566h1.808v3.566Z" fill="#C4C4C4"/></svg>
